icons/mojo-dark.svg

<svg xmlns="http://www.w3.org/2000/svg" width="256" height="256" fill="none"><path fill="#282828" d="M196 0H60C26.863 0 0 26.863 0 60v136c0 33.137 26.863 60 60 60h136c33.137 0 60-26.863 60-60V60c0-33.137-26.863-60-60-60"/><path fill="#fff" d="M40 52.011V204h18V75h9l48 129h26l48-129h9V52h-19l-49 133h-4L77 52zM216 75h-18v129h18z"/></svg>

<svg width="256" height="256" viewBox="0 0 256 256" fill="none" xmlns="http://www.w3.org/2000/svg">
<path d="M196 0H60C26.8629 0 0 26.8629 0 60V196C0 229.137 26.8629 256 60 256H196C229.137 256 256 229.137 256 196V60C256 26.8629 229.137 0 196 0Z" fill="#282828"/>
<path d="M40 52.0112V204H58V75H67L115 204H141L189 75H198V52H179L130 185H126L77 52L40 52.0112Z" fill="white"/>
<path d="M216 75H198V204H216V75Z" fill="white"/>
</svg>
